X: 84
T: Mrs McKinlay's Favourite
R: jig
Q: "Slow"
B: William Shepherd "1st Collection" 1793 p.8 #4
F: http://imslp.org/wiki/File:PMLP73094-Shepherd_Collections_HMT.pdf
C: William Shepherd (17??-1812)
Z: 2012 John Chambers <jc:trillian.mit.edu>
M: 6/8
L: 1/8
K: Bb
D/F/ |\
BBB dfB | {B}A2c e2c | dBB AFF | Gc/d/e/c/ {B}A2D/F/ |\
BBB dfB | {B}A2c e2c | dBF GcA | {c}BBB B2 :|
|: B/d/ |\
fff dBB | {B}A2c e2c | dBB AFF | Gc/d/e/c/ {B}A2D/F/ |\
BB=E/G/ ccB | BAc Hf2 f/e/ | dBF GcA | {c}BBB B2 :|
